X:1
T:We’ve a Story to Tell to the Nations
T:We’ve a Story to Tell to the Nations
T:Henry Ernest Nichol
T:Henry Ernest Nichol, 1896
T:Public Domain Courtesy of the Cyber Hymnal™
T:Public Domain Courtesy of the Cyber Hymnal™
C:Henry Ernest Nichol
Z:Public Domain
Z:Courtesy of the Cyber Hymnal™
%%score ( 1 2 ) ( 3 4 )
L:1/8
Q:1/4=105
M:4/4
K:F
V:1 treble 
V:2 treble 
V:3 bass 
V:4 bass 
V:1
 F>[FG] | [FA]2 [_EA]>[EA] [=EB]2 [EA]>[E^G] | [FA]4 [CF]2 [FA]>[EB] | %3
w: 1.~We’ve a|sto- ry to tell to the|na- tions, That shall|
w: 2.~We’ve a|song to be sung to the|na- tions, That shall|
w: 3.~We’ve a|mes- sage to give to the|na- tions, That the|
w: 4.~We’ve a|Sav- ior to show to the|na- tions, Who the|
 [Fc]2 [Ac]2 [_Ad]2 [=Ac]>[G=B] | [Ac]6 [Fc]2 [Ed]2 [EB][FA] G2 (AB) | c4 [FA]2 [EG]2 | %6
w: turn their hearts to the|right, A sto- ry of truth and *|mer- cy, A|
w: lift their hearts to the|Lord, A song that shall con- quer *|e- vil And|
w: Lord who reigns up a-|bove Has sent us His Son to *|save us, And|
w: path of sor- row has|trod, That all of the world’s great *|peo- ples Might|
 [DF]2 [DE][CF] [=B,G]2 [DF]2 | ([CE]2 [DF]2 [EG]2) [EG]2 | [FA]2 [FA][FA] [F=B]2 [FG]2 | [Ec]6 || %10
w: sto- ry of peace and|light, * * A|sto- ry of peace and|light.|
w: sha- tter the spear and|sword, * * And|shat- ter the spear and|sword.|
w: show us that God is|love, * * And|show us that God is|love.|
w: come to the truth of|God, * * Might|come to the truth of|God.|
"^Refrain" C>C x/4 | [CF]2 [CF]>[CF] [CG]2 [CFA]2 | [CA]4 [CG]2 [CG]>[CA] | %13
w: |||
w: |||
w: |||
w: |||
 [EB]2 [EB]>[EB] [EA]2 [EG]2 | c6 [Bc]2 | [Af]2 [cf]2 [Be]2 [_Ad]>[Ad] | [Ac]2 [EA]2 F2 [FB]2 | %17
w: ||||
w: ||||
w: ||||
w: ||||
 [FA]2 [FA]>[FA] [DA]2 [EG]2 | F6 |] %19
w: ||
w: ||
w: ||
w: ||
V:2
 F3/2 x/ | x8 | x8 | x8 | x14 E2 | (F3 E) x4 | x8 | x8 | x8 | x6 || C3/2C3/4 | x8 | x8 | x8 | %14
 (F2 E2 F2) x2 | x8 | x4 F2 x2 | x8 | F6 |] %19
V:3
 [F,A,]>[F,B,] | [F,C]2 [_G,C]>[G,C] [=G,C]2 [C,C]>[C,=B,] | C4 [F,A,]2 [F,C]>[F,B,] | %3
w: ~ ~|~ ~ ~ ~ ~ ~|~ ~ ~ ~|
 [F,A,]2 [F,C]2 [F,=B,]2 [F,C]>[F,D] | [F,C]6 [A,C]2 [B,C]2 [G,C][F,C] [E,C]2 [B,C]2 | %5
w: ~ ~ ~ ~ ~|~ ~ ~ ~ ~ ~ ~|
 ([A,C]2 [F,A,][C,G,]) [F,A,]2 [C,B,]2 | [D,A,]2 [D,A,][D,A,] [G,,G,]2 [=B,,G,]2 | %7
w: ~ * * ~ ~|~ ~ ~ ~ ~|
 (G,4 C2) [C,C]2 | [F,C]2 [F,C][E,C] [D,D]2 [G,=B,]2 | C4 x2 || [E,B,]>[E,B,] x/4 | %11
w: ~ * ~|~ ~ ~ ~ ~|~|For the|
 [F,A,]2 [C,A,]>[C,A,] [F,A,]2 [C,A,]2 | B,4 [E,B,]2 [C,B,]>[C,B,] | [G,C]2 [C,C]>[C,C] C2 [B,C]2 | %14
w: dark- ness shall turn to|dawn- ing, And the|dawn- ing to noon- day|
 C6 [G,E]2 | [F,F]2 [A,F]2 [B,F]2 [=B,F]>[B,F] | [CF]2 [_DE]2 =D2 [G,D]2 | %17
w: bright; And|Christ’s great king- dom shall|come on earth, The|
 [C,C]2 [C,C]>[C,C] [C,B,]2 [C,B,]2 | [F,A,]6 |] %19
w: king- dom of love and|light.|
V:4
 x2 | x8 | (F,2 C,2) x4 | x8 | x16 | x8 | x8 | C,6 x2 | x8 | (C,2 B,2 A,2) || x9/4 | x8 | %12
 (E,2 C,2) x4 | x4 C2 x2 | (A,2 B,2 A,2) x2 | x8 | x4 D2 x2 | x8 | x6 |] %19

